src/svg/uf1cb-codepen.svg

<!-- Generated by IcoMoon.io -->
<svg version="1.1" xmlns="http://www.w3.org/2000/svg" width="32" height="32" viewBox="0 0 32 32">
<path d="M3.857 20.875l10.768 7.179v-6.411l-5.964-3.982zM2.75 18.304l3.446-2.304-3.446-2.304v4.607zM17.375 28.054l10.768-7.179-4.804-3.214-5.964 3.982v6.411zM16 19.25l4.857-3.25-4.857-3.25-4.857 3.25zM8.661 14.339l5.964-3.982v-6.411l-10.768 7.179zM25.804 16l3.446 2.304v-4.607zM23.339 14.339l4.804-3.214-10.768-7.179v6.411zM32 11.125v9.75c0 0.446-0.232 0.893-0.607 1.143l-14.625 9.75c-0.232 0.143-0.5 0.232-0.768 0.232s-0.536-0.089-0.768-0.232l-14.625-9.75c-0.375-0.25-0.607-0.696-0.607-1.143v-9.75c0-0.446 0.232-0.893 0.607-1.143l14.625-9.75c0.232-0.143 0.5-0.232 0.768-0.232s0.536 0.089 0.768 0.232l14.625 9.75c0.375 0.25 0.607 0.696 0.607 1.143z"></path>
</svg>

<svg xmlns="http://www.w3.org/2000/svg" width="32" height="32"><path d="M3.857 20.875l10.768 7.179v-6.411l-5.964-3.982zM2.75 18.304L6.196 16 2.75 13.696v4.607zm14.625 9.75l10.768-7.179-4.804-3.214-5.964 3.982v6.411zM16 19.25L20.857 16 16 12.75 11.143 16zm-7.339-4.911l5.964-3.982V3.946L3.857 11.125zM25.804 16l3.446 2.304v-4.607zm-2.465-1.661l4.804-3.214-10.768-7.179v6.411zM32 11.125v9.75c0 .446-.232.893-.607 1.143l-14.625 9.75c-.232.143-.5.232-.768.232s-.536-.089-.768-.232L.607 22.018A1.397 1.397 0 0 1 0 20.875v-9.75c0-.446.232-.893.607-1.143L15.232.232C15.464.089 15.732 0 16 0s.536.089.768.232l14.625 9.75c.375.25.607.696.607 1.143z"/></svg>
